icons-dark/apps/48/plan.svg

<svg width="48" xmlns="http://www.w3.org/2000/svg" height="48" xmlns:xlink="http://www.w3.org/1999/xlink">
 <defs>
  <linearGradient id="a" y1="13.634" x1="29.06" y2="1.499" x2="29.01" gradientUnits="userSpaceOnUse" gradientTransform="matrix(-.99376-.00282.00423.65925 47.823 4.893)">
   <stop stop-color="#63984b"/>
   <stop offset="1" stop-color="#8fc278"/>
  </linearGradient>
  <linearGradient id="b" y1="32" y2="2" gradientUnits="userSpaceOnUse" x2="0" gradientTransform="translate(12 12)">
   <stop stop-color="#d8dcde"/>
   <stop offset="1" stop-color="#f9fafb"/>
  </linearGradient>
  <linearGradient id="c" y1="8" y2="4" x2="0" gradientUnits="userSpaceOnUse" gradientTransform="translate(1)">
   <stop stop-color="#2f3943"/>
   <stop offset="1" stop-color="#4d5662"/>
  </linearGradient>
  <linearGradient xlink:href="#c" id="d" y1="8" y2="4" x2="0" gradientUnits="userSpaceOnUse" gradientTransform="translate(26)"/>
  <linearGradient id="e" y1="8" x1="8" y2="19" x2="19" gradientUnits="userSpaceOnUse">
   <stop/>
   <stop offset="1" stop-opacity="0"/>
  </linearGradient>
  <linearGradient xlink:href="#e" id="f" y1="8" x1="8" y2="19" x2="19" gradientUnits="userSpaceOnUse" gradientTransform="translate(25)"/>
 </defs>
 <g stroke-linejoin="bevel" stroke-width="2">
  <path fill="url(#b)" d="m4 13v31h40v-31z"/>
  <path fill="url(#a)" d="m4 6h40v8h-40z"/>
  <g stroke-linecap="round">
   <rect width="40" x="4" y="13" fill="#507441" height="1"/>
   <g fill="#bdc3c7">
    <rect width="11" x="4" y="14" height="6"/>
    <rect width="17" x="27" y="38" height="6"/>
   </g>
   <rect width="9" x="7" y="7" fill="#507441" height="1"/>
   <rect width="7" x="8" y="4" fill="url(#c)" height="4"/>
   <rect width="9" x="32" y="7" fill="#507441" height="1"/>
   <rect width="7" x="33" y="4" fill="url(#d)" height="4"/>
   <rect width="12" x="18" y="10" fill="#fcfcfc" height="2"/>
  </g>
 </g>
 <g fill-rule="evenodd">
  <path opacity=".2" fill="url(#e)" d="m8 8l11 11h7l-11-11z"/>
  <path opacity=".2" fill="url(#f)" d="m33 8l11 11v-7l-4-4z"/>
 </g>
 <g stroke-linejoin="bevel" stroke-linecap="round" stroke-width="2">
  <g fill="#da4453">
   <rect width="4" x="16" y="18" height="1"/>
   <rect width="2" x="34" y="30" height="1"/>
   <rect width="1" x="5" y="36" height="1"/>
   <rect width="1" x="7" y="36" height="1"/>
  </g>
  <g fill="#27ae60">
   <rect width="2" x="16" y="36" height="1"/>
   <rect width="4" x="28" y="24" height="1"/>
   <rect width="4" x="10" y="24" height="1"/>
   <rect width="4" x="16" y="24" height="1"/>
   <rect width="4" x="22" y="24" height="1"/>
  </g>
  <g fill="#3daefd">
   <rect width="3" x="34" y="36" height="1"/>
   <rect width="3" x="5" y="30" height="1"/>
   <rect width="3" x="40" y="18" height="1"/>
  </g>
 </g>
</svg>

<?xml version="1.0" encoding="UTF-8" standalone="no"?>

<!-- Created with Inkscape (http://www.inkscape.org/) -->
<svg width="48" version="1.1" xmlns="http://www.w3.org/2000/svg" height="48" xmlns:xlink="http://www.w3.org/1999/xlink" xmlns:inkscape="http://www.inkscape.org/namespaces/inkscape">
 <defs id="defs2987">
  <linearGradient inkscape:collect="always" id="linearGradient4279">
   <stop id="stop4281"/>
   <stop offset="1" style="stop-opacity:0" id="stop4283"/>
  </linearGradient>
  <linearGradient inkscape:collect="always" id="linearGradient4251-0">
   <stop style="stop-color:#63984b" id="stop4253-4"/>
   <stop offset="1" style="stop-color:#8fc278" id="stop4255-2"/>
  </linearGradient>
  <linearGradient inkscape:collect="always" xlink:href="#linearGradient4251-0" id="linearGradient4371-1-70-2" y1="13.634429" x1="29.0617" y2="1.499197" x2="29.01003" gradientUnits="userSpaceOnUse" gradientTransform="matrix(-0.99376025 -0.00282092 0.00423137 0.65924952 47.822674 4.89349)"/>
  <linearGradient inkscape:collect="always" id="linearGradient4903">
   <stop style="stop-color:#d8dcde" id="stop4905"/>
   <stop offset="1" style="stop-color:#f9fafb" id="stop4907"/>
  </linearGradient>
  <linearGradient inkscape:collect="always" id="linearGradient4199">
   <stop style="stop-color:#2f3943" id="stop4201"/>
   <stop offset="1" style="stop-color:#4d5662" id="stop4203"/>
  </linearGradient>
  <linearGradient inkscape:collect="always" xlink:href="#linearGradient4903" id="linearGradient5131" y1="32" y2="2" gradientUnits="userSpaceOnUse" x2="0" gradientTransform="matrix(1 0 0 1 12 12)"/>
  <linearGradient inkscape:collect="always" xlink:href="#linearGradient4199" id="linearGradient5225" y1="8" y2="4" x2="0" gradientUnits="userSpaceOnUse" gradientTransform="matrix(1 0 0 1 1 0)"/>
  <linearGradient inkscape:collect="always" xlink:href="#linearGradient4199" id="linearGradient5225-3" y1="8" y2="4" x2="0" gradientUnits="userSpaceOnUse" gradientTransform="matrix(1 0 0 1 26 0)"/>
  <linearGradient inkscape:collect="always" xlink:href="#linearGradient4279" id="linearGradient5390" y1="8" x1="8" y2="19" x2="19" gradientUnits="userSpaceOnUse"/>
  <linearGradient inkscape:collect="always" xlink:href="#linearGradient4279" id="linearGradient5390-8" y1="8" x1="8" y2="19" x2="19" gradientUnits="userSpaceOnUse" gradientTransform="matrix(1 0 0 1 25 0)"/>
 </defs>
 <metadata id="metadata2990"/>
 <g inkscape:label="Layer 1" inkscape:groupmode="layer" id="layer1">
  <path style="fill:url(#linearGradient5131);stroke-linecap:round;stroke-linejoin:bevel;stroke-width:2" id="rect5121" d="M 4 13 L 4 44 L 44 44 L 44 13 L 4 13 z "/>
  <path inkscape:connector-curvature="0" style="fill:url(#linearGradient4371-1-70-2);stroke-linecap:round;stroke-linejoin:bevel;stroke-width:2" id="rect4174-4-7-4-3" d="m 4,6 40,0 0,8 -40,0 z"/>
  <rect width="40" x="4" y="13" height="1" style="fill:#507441;stroke-linecap:round;stroke-linejoin:bevel;stroke-width:2" id="rect5251-5"/>
  <rect width="11" x="4" y="14" height="6" style="fill:#bdc3c7;stroke-linecap:round;stroke-linejoin:bevel;stroke-width:2" id="rect5067"/>
  <rect width="17" x="27" y="38" height="6" style="fill:#bdc3c7;stroke-linecap:round;stroke-linejoin:bevel;stroke-width:2" id="rect5145"/>
  <rect width="9" x="7" y="7" height="1" style="fill:#507441;stroke-linecap:round;stroke-linejoin:bevel;stroke-width:2" id="rect5251"/>
  <rect width="7" x="8" y="4" height="4" style="fill:url(#linearGradient5225);stroke-linecap:round;stroke-linejoin:bevel;stroke-width:2" id="rect5217"/>
  <rect width="9" x="32" y="7" height="1" style="fill:#507441;stroke-linecap:round;stroke-linejoin:bevel;stroke-width:2" id="rect5251-9"/>
  <rect width="7" x="33" y="4" height="4" style="fill:url(#linearGradient5225-3);stroke-linecap:round;stroke-linejoin:bevel;stroke-width:2" id="rect5217-1"/>
  <rect width="12" x="18" y="10" height="2" style="fill:#fcfcfc;stroke-linecap:round;stroke-linejoin:bevel;stroke-width:2" id="rect5440"/>
  <path inkscape:connector-curvature="0" style="fill:url(#linearGradient5390);opacity:0.2;fill-rule:evenodd" id="path5382" d="M 8,8 19,19 26,19 15,8 Z"/>
  <path inkscape:connector-curvature="0" style="fill:url(#linearGradient5390-8);opacity:0.2;fill-rule:evenodd" id="path5382-4" d="M 33,8 44,19 44,12 40,8 Z"/>
  <rect width="4" x="16" y="18" height="1" style="fill:#da4453;stroke-linecap:round;stroke-linejoin:bevel;stroke-width:2" id="rect5416"/>
  <rect width="2" x="34" y="30" height="1" style="fill:#da4453;stroke-linecap:round;stroke-linejoin:bevel;stroke-width:2" id="rect5418"/>
  <rect width="1" x="5" y="36" height="1" style="fill:#da4453;stroke-linecap:round;stroke-linejoin:bevel;stroke-width:2" id="rect5420"/>
  <rect width="1" x="7" y="36" height="1" style="fill:#da4453;stroke-linecap:round;stroke-linejoin:bevel;stroke-width:2" id="rect5422"/>
  <rect width="2" x="16" y="36" height="1" style="fill:#27ae60;stroke-linecap:round;stroke-linejoin:bevel;stroke-width:2" id="rect5424"/>
  <rect width="4" x="28" y="24" height="1" style="fill:#27ae60;stroke-linecap:round;stroke-linejoin:bevel;stroke-width:2" id="rect5426"/>
  <rect width="4" x="10" y="24" height="1" style="fill:#27ae60;stroke-linecap:round;stroke-linejoin:bevel;stroke-width:2" id="rect5428"/>
  <rect width="4" x="16" y="24" height="1" style="fill:#27ae60;stroke-linecap:round;stroke-linejoin:bevel;stroke-width:2" id="rect5430"/>
  <rect width="4" x="22" y="24" height="1" style="fill:#27ae60;stroke-linecap:round;stroke-linejoin:bevel;stroke-width:2" id="rect5432"/>
  <rect width="3" x="34" y="36" height="1" style="fill:#3daefd;stroke-linecap:round;stroke-linejoin:bevel;stroke-width:2" id="rect5434"/>
  <rect width="3" x="5" y="30" height="1" style="fill:#3daefd;stroke-linecap:round;stroke-linejoin:bevel;stroke-width:2" id="rect5436"/>
  <rect width="3" x="40" y="18" height="1" style="fill:#3daefd;stroke-linecap:round;stroke-linejoin:bevel;stroke-width:2" id="rect5438"/>
 </g>
</svg>
